public/cloud-check-icon.svg

<svg width="81" height="99" viewBox="0 0 81 99" fill="none" xmlns="http://www.w3.org/2000/svg">
<g clip-path="url(#clip0_9_86726)">
<path fill-rule="evenodd" clip-rule="evenodd" d="M25.7912 91.2563C22.4956 93.1761 19.4989 93.3568 17.3406 92.0951L17.2801 92.0895L4.99251 84.9196C4.29951 84.5039 3.6896 83.9617 3.19434 83.3206C1.27594 80.7315 1.21626 76.8143 1.75662 73.7603C3.01042 67.5477 6.30365 61.9405 11.1063 57.8411L11.6459 57.4245C11.7655 56.7537 11.8261 56.128 11.9457 55.4627C13.5644 45.9144 20.1572 35.2137 28.6087 30.2954C31.9051 28.3645 36.1596 27.0664 39.8171 28.69L40.238 28.865L42.7549 30.3556C45.0918 28.2964 48.2104 26.3425 51.3865 26.3956C52.1678 26.4056 52.9408 26.5588 53.6676 26.8478L54.027 26.9991L59.3614 30.1251L59.9608 30.0102C61.2047 29.7701 62.4902 29.8797 63.6763 30.3271L64.0965 30.5084L76.4453 37.6839C78.783 38.8553 80.2813 41.6312 80.2813 45.6744C80.2813 53.3639 74.9462 62.7127 68.2935 66.5515L25.7912 91.2563Z" fill="#F1F4FB"/>
<path fill-rule="evenodd" clip-rule="evenodd" d="M36.2238 28.656C33.6545 28.7717 31.1577 29.5488 28.9718 30.9131C21.0606 35.5305 14.3476 45.6768 12.6116 55.5871C12.5527 56.2382 12.4323 56.8479 12.3756 57.4998C12.3597 57.6874 12.2736 57.8621 12.1348 57.9885L11.5954 58.4051C6.89289 62.3644 3.67825 67.8254 2.48631 73.8799C2.18585 75.654 1.64708 80.0781 3.80459 82.8968C4.22284 83.4712 4.753 83.9536 5.36272 84.3145L17.6503 91.4726C19.6883 92.6606 22.4483 92.366 25.4427 90.6402L67.9392 65.9425C74.3527 62.2249 79.5677 53.135 79.5677 45.6815C79.5677 42.0969 78.3092 39.4105 76.1509 38.3247L63.4442 30.9853C62.3701 30.592 61.2105 30.4981 60.0879 30.7136L59.5475 30.8221C59.3834 30.8606 59.211 30.8321 59.0678 30.7429L53.3732 27.4957C52.7441 27.2425 52.0731 27.1114 51.3956 27.1092C47.9789 27.0426 44.8625 29.4511 43.2438 30.8878C43.1404 30.9851 43.0082 31.0455 42.8674 31.0598C42.7266 31.0741 42.585 31.0415 42.4644 30.967L39.5275 29.3316C38.4871 28.8767 37.3635 28.6463 36.2294 28.6552L36.2238 28.656ZM20.4607 93.6158C19.2426 93.6315 18.0424 93.3189 16.9847 92.7105L4.63589 85.5287C3.86357 85.0789 3.19054 84.4752 2.65779 83.7546C0.200602 80.4828 0.740212 75.5819 1.09967 73.6328C2.35407 67.2456 5.73728 61.4815 10.6892 57.2947L10.989 57.0467C11.0496 56.4678 11.169 55.9237 11.2248 55.3448C13.0229 45.0488 20.0343 34.4985 28.2475 29.6887C30.7054 28.2164 35.6205 26.055 40.1156 28.0414L40.5358 28.2275L42.6933 29.4891C44.5519 27.9257 47.7885 25.6875 51.2666 25.6875C51.3264 25.6875 51.3264 25.6931 51.387 25.6931C52.2689 25.7021 53.1421 25.8719 53.9639 26.1944L54.3233 26.3567L59.4791 29.3807L59.8386 29.3204C61.2235 29.0521 62.6549 29.1758 63.9742 29.6777L64.3943 29.8645L76.8013 37.0772C79.4394 38.3927 80.9976 41.5307 80.9976 45.6832C80.9976 53.5905 75.4839 63.2283 68.6487 67.1757L26.152 91.8726C24.4379 92.9424 22.4761 93.5439 20.4607 93.6158Z" fill="#1B69FF"/>
<path fill-rule="evenodd" clip-rule="evenodd" d="M25.7927 91.2572C19.199 95.096 13.8047 91.9755 13.8047 84.2875C13.8047 77.3053 18.2409 68.9576 23.9945 64.6064C25.0737 54.2256 32.2667 42.5222 40.9573 37.4772C46.6511 34.1333 51.7466 34.4898 54.8629 37.7726C55.9059 36.7984 57.0519 35.9424 58.2804 35.22C63.5543 32.1668 67.9896 33.5188 69.6067 38.057C75.6003 35.3048 80.2755 38.4981 80.2755 45.6855C80.2755 53.375 74.9403 62.7238 68.2877 66.5626L25.7927 91.2572Z" fill="white"/>
<path fill-rule="evenodd" clip-rule="evenodd" d="M48.5734 35.8566C46.0029 35.9453 43.5011 36.7154 41.3207 38.0892C32.9297 42.96 25.7966 54.3909 24.7174 64.675C24.7115 64.7757 24.6812 64.8735 24.6291 64.9597C24.577 65.0458 24.5046 65.1178 24.4184 65.1693C18.7844 69.4302 14.5283 77.6512 14.5283 84.2834C14.5283 87.7421 15.6674 90.2955 17.6456 91.4779C19.7433 92.6604 22.4435 92.3649 25.4379 90.6391L67.9337 65.9414C74.3472 62.2238 79.563 53.134 79.563 45.6805C79.563 42.3541 78.5404 39.8506 76.6251 38.6127C74.8868 37.4778 72.4895 37.504 69.9119 38.6975C69.7209 38.7781 69.5061 38.7803 69.3134 38.7038C69.2269 38.6649 69.15 38.6075 69.0879 38.5356C69.0259 38.4636 68.9801 38.3788 68.9539 38.2872C68.7051 37.4611 68.2738 36.7024 67.6925 36.0679C67.1111 35.4334 66.3946 34.9396 65.5969 34.6234C63.6784 33.9106 61.2214 34.3391 58.6446 35.8305C57.4589 36.5269 56.3531 37.3529 55.3473 38.2936C55.2825 38.3558 55.2061 38.4042 55.1224 38.4361C55.0387 38.468 54.9495 38.4826 54.8601 38.4791C54.7707 38.4756 54.6828 38.4541 54.6018 38.4159C54.5208 38.3776 54.4483 38.3234 54.3885 38.2563C53.6348 37.4758 52.7297 36.8597 51.7294 36.4464C50.7292 36.0332 49.6553 35.8316 48.5744 35.8541L48.5734 35.8566ZM20.4613 93.6147C19.2435 93.6308 18.0436 93.3182 16.9863 92.7094C14.4693 91.2609 13.0898 88.268 13.0898 84.2842C13.0898 77.2227 17.4057 68.8402 23.3394 64.2229C24.5381 53.6101 31.9129 41.8885 40.6019 36.8577C46.1762 33.6342 51.4507 33.6231 54.9273 36.7967C55.8522 35.9686 56.8563 35.2348 57.9249 34.606C60.8619 32.8985 63.7383 32.4335 66.0767 33.2905C66.9513 33.6264 67.7481 34.1392 68.4181 34.7972C69.0882 35.4553 69.6172 36.2446 69.9724 37.1166C72.7891 36.0189 75.4264 36.121 77.4045 37.4183C79.743 38.9231 81.0015 41.8599 81.0015 45.6805C81.0015 53.587 75.487 63.2257 68.6526 67.1723L26.1551 91.8692C24.4406 92.9406 22.4779 93.5423 20.4613 93.6147Z" fill="#1B69FF"/>
<path fill-rule="evenodd" clip-rule="evenodd" d="M23.9973 65.3103C23.8713 65.3095 23.7475 65.2762 23.6378 65.2137L11.289 58.0429C11.1386 57.9378 11.0313 57.7813 10.9871 57.6025C10.943 57.4237 10.9649 57.2348 11.0489 57.0711C11.143 56.9096 11.2963 56.7918 11.4758 56.7432C11.6554 56.6946 11.8467 56.7191 12.0085 56.8113L24.3575 63.9885C24.4404 64.0318 24.5138 64.0912 24.5738 64.1633C24.6337 64.2353 24.679 64.3186 24.7068 64.4083C24.7347 64.4981 24.7446 64.5925 24.736 64.6861C24.7275 64.7797 24.7007 64.8708 24.6571 64.9539C24.5812 65.0599 24.4824 65.147 24.3681 65.2088C24.2538 65.2705 24.127 65.3052 23.9973 65.3103Z" fill="#1B69FF"/>
<path fill-rule="evenodd" clip-rule="evenodd" d="M55.0437 38.1871C54.9188 38.1859 54.7958 38.1549 54.685 38.0968L42.4574 30.9752C42.29 30.8859 42.1646 30.7336 42.1084 30.5515C42.0523 30.3694 42.0699 30.1723 42.1576 30.0033C42.2025 29.9216 42.2634 29.8498 42.3364 29.7923C42.4094 29.7347 42.4932 29.6926 42.5828 29.6683C42.6723 29.6441 42.7657 29.6383 42.8575 29.6512C42.9494 29.6642 43.0378 29.6955 43.1174 29.7436L55.3443 36.8644C55.5118 36.9535 55.6374 37.1058 55.6936 37.288C55.7497 37.4701 55.7317 37.6673 55.6438 37.8362C55.584 37.9433 55.4968 38.0324 55.3913 38.0941C55.2858 38.1558 55.1658 38.1879 55.0437 38.1871Z" fill="#1B69FF"/>
<path fill-rule="evenodd" clip-rule="evenodd" d="M66.3743 34.9087C66.2671 34.9162 66.1607 34.8841 66.0753 34.8184L59.0616 30.7452C58.978 30.7037 58.9038 30.6455 58.8431 30.5743C58.7823 30.5031 58.7365 30.4203 58.7083 30.3309C58.68 30.2414 58.6701 30.1472 58.6789 30.0538C58.6877 29.9604 58.7149 29.8696 58.7593 29.7871C58.8038 29.7046 58.8642 29.632 58.9372 29.5736C59.0101 29.5152 59.0941 29.4721 59.1839 29.4471C59.2737 29.4221 59.3677 29.4156 59.4601 29.428C59.5524 29.4404 59.6414 29.4713 59.7216 29.5191L66.7338 33.5869C66.8168 33.6301 66.8906 33.6895 66.9507 33.7615C67.0109 33.8336 67.0564 33.917 67.0844 34.0068C67.1124 34.0967 67.1225 34.1912 67.114 34.285C67.1055 34.3787 67.0787 34.4699 67.035 34.5532C66.9588 34.6589 66.8597 34.7458 66.7453 34.8074C66.6308 34.869 66.5039 34.9037 66.3743 34.9087Z" fill="#1B69FF"/>
<path d="M69.6266 5.17682L74.0241 7.73419C74.1143 7.79761 74.1861 7.88413 74.232 7.98478C74.2779 8.08544 74.2963 8.19662 74.2853 8.30682V30.7687C74.2853 41.1883 59.0057 58.1363 58.3529 58.8546C58.2507 58.9683 58.1325 59.0663 58.002 59.1453C57.8967 59.2113 57.7773 59.2509 57.6536 59.2609C57.2312 59.2871 50.6313 59.6395 46.0598 57.0243L41.6064 54.4345C40.2836 53.7465 39.18 52.6973 38.4218 51.4072C37.6635 50.117 37.2814 48.638 37.3189 47.1394V24.6743C37.347 24.367 37.4438 24.0702 37.6021 23.806C37.7604 23.5418 37.9761 23.3172 38.2329 23.1489C44.3334 19.6047 50.0193 14.5858 53.0782 10.05C53.3873 9.59144 53.8192 9.34355 54.1306 9.44018C57.184 10.4183 62.8685 8.82874 69.017 5.25286C69.1008 5.18138 69.2035 5.13589 69.3125 5.12183C69.4215 5.10778 69.5322 5.12577 69.6313 5.17365L69.6266 5.17682Z" fill="white"/>
<path d="M38.2293 23.1488C44.3298 19.6046 50.0158 14.5857 53.0747 10.0499C53.3838 9.59135 53.8157 9.34346 54.1264 9.44008C57.1798 10.4182 62.8642 8.82865 69.0127 5.25277C69.0965 5.18136 69.1989 5.13589 69.3077 5.12184C69.4166 5.10778 69.5272 5.12574 69.6261 5.17356L74.0238 7.73013C73.9255 7.68357 73.816 7.66629 73.7083 7.68032C73.6006 7.69435 73.499 7.73912 73.4157 7.80934C67.2641 11.3852 61.5836 12.9756 58.5279 11.9959C58.2133 11.8977 57.7838 12.1487 57.4755 12.6057C54.4181 17.1415 48.7322 22.1604 42.6309 25.7054C42.3737 25.873 42.1579 26.0974 41.9998 26.3616C41.8417 26.6257 41.7455 26.9227 41.7185 27.23V49.6942C41.6821 51.204 42.0709 52.6934 42.8399 53.99C43.609 55.2865 44.7268 56.3374 46.0642 57.0211H46.0579L41.6044 54.432C40.2817 53.7439 39.1781 52.6948 38.4199 51.4047C37.6617 50.1145 37.2795 48.6356 37.317 47.1369V24.6742C37.345 24.3671 37.4416 24.0704 37.5996 23.8063C37.7576 23.5422 37.9729 23.3174 38.2293 23.1488Z" fill="#1B69FF"/>
<path d="M56.513 59.6498C57.1855 59.6498 57.6094 59.6261 57.6763 59.6205C57.8574 59.6071 58.0327 59.5504 58.1876 59.455C58.3483 59.3584 58.494 59.2385 58.6202 59.0994C59.2778 58.3763 74.6517 41.3285 74.6502 30.7632V8.30207C74.6622 8.12747 74.6274 7.95284 74.5495 7.79638C74.4717 7.63993 74.3534 7.50741 74.2073 7.41266L69.8089 4.85529L69.7868 4.84342C69.6311 4.76742 69.4574 4.73684 69.2853 4.75518C69.1132 4.77352 68.9496 4.84002 68.8131 4.94716C62.7929 8.44701 57.1989 10.0374 54.2375 9.09013C53.9463 9.04679 53.6488 9.09596 53.3866 9.23082C53.1243 9.36568 52.9104 9.57949 52.7746 9.84251C49.744 14.3379 44.1004 19.314 38.0479 22.8313C37.736 23.0313 37.4746 23.3016 37.2844 23.621C37.0942 23.9403 36.9804 24.2999 36.9522 24.6711V47.1386C36.9106 48.6971 37.3054 50.236 38.0912 51.5794C38.8771 52.9227 40.0224 54.0164 41.3962 54.7354L41.4206 54.7513L45.8741 57.3403C45.8918 57.3504 45.9102 57.3591 45.9292 57.3665C49.5151 59.3964 54.3232 59.6498 56.513 59.6498ZM69.4644 5.49997L73.8439 8.04625C73.8841 8.07001 73.9226 8.15714 73.9226 8.3005V30.764C73.9226 41.0481 58.7319 57.8916 58.0838 58.6036C58.0065 58.6898 57.9172 58.7642 57.8187 58.8246C57.762 58.8611 57.6976 58.8842 57.6307 58.8919C57.3507 58.9093 50.7389 59.2784 46.2375 56.7036C46.2218 56.6945 46.2055 56.6865 46.1887 56.6798L41.8092 54.1327L41.7833 54.1161C40.5167 53.4593 39.4597 52.4563 38.7336 51.2221C38.0075 49.988 37.6418 48.5726 37.6783 47.1386V24.6727C37.7065 24.4299 37.7867 24.1961 37.9132 23.9875C38.0397 23.7789 38.2097 23.6003 38.4113 23.4641C44.5512 19.9001 50.2883 14.8313 53.3731 10.2544C53.6091 9.89955 53.9064 9.75381 54.0165 9.78786C57.1627 10.7969 62.9831 9.1804 69.193 5.56809C69.3236 5.48176 69.4094 5.46908 69.44 5.48888C69.4484 5.49205 69.4565 5.49576 69.4644 5.49997Z" fill="#005BEA"/>
<path d="M58.004 39.3602L67.8791 21.9964L66.542 21.2227L58.0016 36.2611L52.7317 33.2056L51.3945 35.5317L58.004 39.3602Z" fill="#1B69FF"/>
</g>
<defs>
<clipPath id="clip0_9_86726">
<rect width="81" height="99" fill="white"/>
</clipPath>
</defs>
</svg>

<svg xmlns="http://www.w3.org/2000/svg" width="81" height="99" fill="none" viewBox="0 0 81 99"><g clip-path="url(#a)"><path fill="#f1f4fb" fill-rule="evenodd" d="M25.791 91.256c-3.295 1.92-6.292 2.1-8.45.84l-.06-.007-12.288-7.17a6.5 6.5 0 0 1-1.799-1.598c-1.918-2.59-1.978-6.507-1.437-9.56a28.28 28.28 0 0 1 9.35-15.92l.539-.416c.12-.671.18-1.297.3-1.962 1.618-9.549 8.211-20.25 16.663-25.168 3.296-1.93 7.55-3.229 11.208-1.605l.421.175 2.517 1.49c2.337-2.059 5.455-4.012 8.631-3.96.782.01 1.555.164 2.282.453l.359.151 5.334 3.126.6-.115a6.85 6.85 0 0 1 3.715.317l.42.181 12.35 7.176c2.337 1.171 3.835 3.947 3.835 7.99 0 7.69-5.335 17.039-11.988 20.878z" clip-rule="evenodd"/><path fill="#1b69ff" fill-rule="evenodd" d="M36.224 28.656c-2.57.116-5.066.893-7.252 2.257-7.911 4.618-14.624 14.764-16.36 24.674-.06.651-.18 1.26-.236 1.913a.75.75 0 0 1-.241.489l-.54.416A27.06 27.06 0 0 0 2.486 73.88c-.3 1.774-.839 6.198 1.319 9.017a5.2 5.2 0 0 0 1.558 1.417l12.287 7.159c2.038 1.188 4.798.893 7.793-.833l42.496-24.698c6.414-3.717 11.629-12.807 11.629-20.26 0-3.585-1.259-6.272-3.417-7.357l-12.707-7.34a6.3 6.3 0 0 0-3.356-.271l-.54.108a.63.63 0 0 1-.48-.08l-5.695-3.246a5.3 5.3 0 0 0-1.977-.387c-3.417-.066-6.534 2.342-8.152 3.779a.644.644 0 0 1-.78.079l-2.936-1.635a8.1 8.1 0 0 0-3.299-.677zM20.46 93.616a6.8 6.8 0 0 1-3.476-.906L4.635 85.53a6.6 6.6 0 0 1-1.977-1.774C.2 80.483.74 75.582 1.1 73.633a28.6 28.6 0 0 1 9.59-16.338l.299-.248c.06-.58.18-1.123.236-1.702 1.798-10.296 8.81-20.846 17.023-25.656 2.457-1.473 7.372-3.634 11.868-1.648l.42.186 2.157 1.262c1.859-1.563 5.096-3.802 8.574-3.802.06 0 .06.006.12.006a7.3 7.3 0 0 1 2.577.501l.36.163 5.155 3.024.36-.06a7.6 7.6 0 0 1 4.135.357l.42.186 12.407 7.213c2.638 1.316 4.197 4.454 4.197 8.606 0 7.907-5.514 17.545-12.35 21.493L26.153 91.873a11.5 11.5 0 0 1-5.691 1.743" clip-rule="evenodd"/><path fill="#fff" fill-rule="evenodd" d="M25.793 91.257c-6.594 3.839-11.988.718-11.988-6.97 0-6.982 4.436-15.33 10.19-19.68 1.079-10.381 8.272-22.085 16.962-27.13 5.694-3.344 10.79-2.987 13.906.296a19.5 19.5 0 0 1 3.417-2.553c5.274-3.053 9.71-1.701 11.327 2.837 5.993-2.752 10.668.441 10.668 7.628 0 7.69-5.335 17.039-11.987 20.878z" clip-rule="evenodd"/><path fill="#1b69ff" fill-rule="evenodd" d="M48.573 35.857c-2.57.088-5.072.858-7.252 2.232-8.391 4.871-15.524 16.302-16.604 26.586a.62.62 0 0 1-.299.494c-5.634 4.261-9.89 12.482-9.89 19.114 0 3.46 1.14 6.013 3.118 7.195 2.097 1.182 4.797.887 7.792-.839l42.496-24.698c6.413-3.717 11.629-12.807 11.629-20.26 0-3.327-1.023-5.83-2.938-7.068-1.738-1.135-4.135-1.109-6.713.084a.8.8 0 0 1-.599.007.65.65 0 0 1-.36-.417 5.7 5.7 0 0 0-1.26-2.22 5.7 5.7 0 0 0-2.096-1.444c-1.919-.712-4.376-.284-6.952 1.208a18.7 18.7 0 0 0-3.298 2.463.67.67 0 0 1-.959-.038 7.9 7.9 0 0 0-2.659-1.81 7.8 7.8 0 0 0-3.155-.592zM20.461 93.615a6.8 6.8 0 0 1-3.475-.906c-2.517-1.448-3.896-4.441-3.896-8.425 0-7.061 4.316-15.444 10.25-20.061 1.198-10.613 8.573-22.334 17.262-27.365 5.574-3.224 10.849-3.235 14.325-.061a18.8 18.8 0 0 1 2.998-2.191c2.937-1.708 5.813-2.172 8.152-1.315a6.8 6.8 0 0 1 2.341 1.506c.67.658 1.2 1.448 1.554 2.32 2.817-1.098 5.454-.996 7.433.301C79.742 38.923 81 41.86 81 45.681c0 7.906-5.514 17.545-12.348 21.491L26.155 91.87a11.5 11.5 0 0 1-5.694 1.746" clip-rule="evenodd"/><path fill="#1b69ff" fill-rule="evenodd" d="M23.997 65.31a.74.74 0 0 1-.36-.096L11.29 58.043a.76.76 0 0 1-.24-.972.71.71 0 0 1 .96-.26l12.349 7.178a.71.71 0 0 1 .378.697.7.7 0 0 1-.079.268.86.86 0 0 1-.66.356M55.044 38.187a.8.8 0 0 1-.359-.09l-12.228-7.122a.72.72 0 0 1-.3-.972.695.695 0 0 1 .7-.352q.139.02.26.093l12.227 7.12a.72.72 0 0 1 .3.972.69.69 0 0 1-.6.351M66.374 34.909a.44.44 0 0 1-.299-.09l-7.013-4.074a.7.7 0 0 1-.354-.414.7.7 0 0 1 .476-.884.7.7 0 0 1 .538.072l7.012 4.068a.71.71 0 0 1 .38.698.7.7 0 0 1-.079.268.86.86 0 0 1-.66.356" clip-rule="evenodd"/><path fill="#fff" d="m69.627 5.177 4.397 2.557a.62.62 0 0 1 .261.573v22.462c0 10.42-15.28 27.367-15.932 28.086q-.154.17-.351.29a.8.8 0 0 1-.348.116c-.423.026-7.023.378-11.594-2.237l-4.454-2.59a7.95 7.95 0 0 1-3.184-3.027 8.03 8.03 0 0 1-1.103-4.268V24.674a2.05 2.05 0 0 1 .914-1.525c6.1-3.544 11.786-8.563 14.845-13.099.31-.459.741-.706 1.053-.61 3.053.978 8.737-.611 14.886-4.187a.57.57 0 0 1 .614-.08z"/><path fill="#1b69ff" d="M38.23 23.149c6.1-3.544 11.786-8.563 14.845-13.1.309-.458.74-.706 1.051-.609 3.054.978 8.738-.611 14.887-4.187a.57.57 0 0 1 .613-.08l4.398 2.557a.57.57 0 0 0-.608.08c-6.152 3.575-11.832 5.166-14.888 4.186-.315-.098-.744.153-1.053.61-3.057 4.536-8.743 9.554-14.844 13.1a2.02 2.02 0 0 0-.913 1.524v22.464c-.036 1.51.353 3 1.122 4.296a7.97 7.97 0 0 0 3.224 3.031h-.006l-4.454-2.589a7.95 7.95 0 0 1-3.184-3.027 8.03 8.03 0 0 1-1.103-4.268V24.674a2.05 2.05 0 0 1 .912-1.525"/><path fill="#005bea" d="M56.513 59.65c.672 0 1.096-.024 1.163-.03.181-.013.357-.07.512-.165a2 2 0 0 0 .432-.356c.658-.723 16.032-17.77 16.03-28.336V8.303a.98.98 0 0 0-.443-.89L69.81 4.855l-.022-.012a.92.92 0 0 0-.974.104c-6.02 3.5-11.614 5.09-14.576 4.143a1.41 1.41 0 0 0-1.462.753c-3.031 4.495-8.675 9.471-14.727 12.988a2.39 2.39 0 0 0-1.096 1.84V47.14a8.36 8.36 0 0 0 1.14 4.44 8.3 8.3 0 0 0 3.304 3.156l.025.016 4.453 2.59q.027.014.055.026c3.586 2.03 8.394 2.283 10.584 2.283M69.464 5.5l4.38 2.546c.04.024.079.111.079.255v22.463c0 10.284-15.191 27.128-15.84 27.84q-.115.13-.264.22a.44.44 0 0 1-.188.068c-.28.017-6.892.386-11.394-2.188l-.048-.024-4.38-2.547-.026-.017a7.6 7.6 0 0 1-3.05-2.894 7.67 7.67 0 0 1-1.055-4.083V24.673a1.7 1.7 0 0 1 .733-1.209c6.14-3.564 11.877-8.633 14.962-13.21.236-.354.533-.5.644-.466 3.146 1.009 8.966-.608 15.176-4.22.13-.086.216-.099.247-.08z"/><path fill="#1b69ff" d="m58.004 39.36 9.875-17.364-1.337-.773-8.54 15.038-5.27-3.055-1.337 2.326z"/></g><defs><clipPath id="a"><path fill="#fff" d="M0 0h81v99H0z"/></clipPath></defs></svg>
